!!!COM: Chopin, Frederic
!!!CDT: 1810///-1849///
!!!OTL: Etude in F Minor, Op. 10, No. 9
!!!OPS: Op. 10
!!!ONM: No. 9
!!!ODT: 1830/11//
!!!PPP: Leipzig, Paris and London
!!!ODE: Franz Liszt
!!!OMD: Allegro molto agitato
**absb	**kern	**kern	**dynam
*	*staff2	*staff1	*staff1/2
*	*Ipiano	*Ipiano	*Ipiano
*	*clefF4	*clefG2	*clefG2
*	*k[b-e-a-d-]	*k[b-e-a-d-]	*k[b-e-a-d-]
*M6/8	*M6/8	*M6/8	*M6/8
*MM132	*MM132	*MM132	*MM132
=1-	=1-	=1-	=1-
*	*ped	*	*
!	!LO:TX:b:t=legatissimo	!	!
0	(16FF\LL	8r	p
0.25	16C\	.	.
0.5	16A-\	(8f'/L	.
0.75	16C\	.	.
1	16B-\	8g'/J)	.
1.25	16C\JJ)	.	.
*	*Xped	*	*
*	*ped	*	*
1.5	(16FF\LL	8r	.
1.75	16C\	.	.
2	16c\	(8a-'/L	.
2.25	16C\	.	.
2.5	16d-\	8b-/J)	.
2.75	16C\JJ)	.	.
*	*Xped	*	*
=2	=2	=2	=2
*	*ped	*	*
!	!	!LO:TX:b:t=cresc.	!
3	(16FF\LL	8r	.
3.25	16C\	.	.
3.5	16c\	(8cc'\L	.
3.75	16C\	.	<
4	16B-\	8dd-'\J	(
4.25	16C\JJ)	.	(
*	*Xped	*	*
*	*ped	*	*
4.5	(16FF\LL	8cc'\L	(
4.75	16C\	.	(
5	16A-\	8aa-'\	(
5.25	16C\	.	(
5.5	16B-\	8gg'\J	(
5.75	16C\JJ)	.	[
*	*Xped	*	*
=3	=3	=3	=3
*	*ped	*	*
!	!	!LO:TX:b:t=con forza	!
6	16FF\LL	8ff'\L	.
6.25	16C\	.	.
6.5	16A-\	8cc'\	.
6.75	16C\	.	.
7	16B-\	8dd-'\J	.
7.25	16C\JJ	.	.
*	*Xped	*	*
*	*ped	*	*
7.5	16FF\LL	8cc'/L	.
7.75	16C\	.	.
8	16A-\	8a-'/	.
8.25	16C\	.	.
8.5	16c\	8f'/J	.
8.75	16C\JJ	.	.
*	*Xped	*	*
=4	=4	=4	=4
*	*ped	*	*
9	16FF\LL	2.c/)	.
9.25	16C\	.	.
9.5	16G\	.	.
9.75	16C\	.	.
10	16A-\	.	.
10.25	16C\JJ	.	.
*	*Xped	*	*
*	*ped	*	*
10.5	16FF\LL	.	.
10.75	16C\	.	.
11	16B-\	.	.
11.25	16C\	.	.
11.5	16G\	.	.
11.75	16C\JJ	.	.
*	*Xped	*	*
=5	=5	=5	=5
*	*ped	*	*
12	16FF\LL	8r	p
12.25	16C\	.	.
12.5	16A-\	(8f'/L	.
12.75	16C\	.	.
13	16B-\	8g'/J)	.
13.25	16C\JJ	.	.
*	*Xped	*	*
!	!LO:TX:b:t=segue	!	!
13.5	16FF\LL	8r	.
13.75	16C\	.	.
14	16c\	(8a-'/L	.
14.25	16C\	.	.
14.5	16d-\	8b-'/J)	.
14.75	16C\JJ	.	.
=6	=6	=6	=6
15	16FF\LL	8r	.
15.25	16C\	.	.
15.5	16c\	(8cc'\L	<
15.75	16C\	.	(
16	16B-\	8dd-'\J	(
16.25	16C\JJ	.	(
16.5	16FF\LL	8cc'\L	(
16.75	16C\	.	(
17	16A-\	8ccc'\	(
17.25	16C\	.	(
17.5	16c\	8aa-'\J	(
17.75	16C\JJ	.	[
=7	=7	=7	=7
18	16FF\LL	8gg'\L	f
18.25	16C\	.	.
18.5	16B-\	8cc'\	.
18.75	16C\	.	.
19	16G\	8dd-'\J	.
19.25	16C\JJ	.	.
19.5	16FF\LL	8cc'/L	.
19.75	16C\	.	.
20	16B-\	8g'/	.
20.25	16C\	.	.
!	!	!	!LO:DY:a
20.5	16G\	8c'/J	<
20.75	16C\JJ	.	(
=8	=8	=8	=8
21	16FF\LL	16f/LL	(
21.25	16BBn\	16g/JJ	[
!	!	!LO:TX:a:t=ritard.	!
21.5	16A-\	2a-^/)	<
21.75	16BB\	.	(
22	16d-\	.	(
22.25	16BB\JJ	.	(
22.5	16FF\LL	.	(
!	!LO:TX:a:t=cresc.	!	!
22.75	16BB\	.	(
23	16A-\	.	(
23.25	16BB\	.	(
23.5	16d-\	8r	(
23.75	16BB\JJ	.	[
=9	=9	=9	=9
!	!LO:TX:a:t=sotto voce	!	!
!	!	!LO:TX:a:t=a tempo	!
24	16FF\LL	8r	.
!	!LO:TX:b:t=sempre legatissimo	!	!
24.25	16C\	.	.
24.5	16A-\	(8f'/L	.
24.75	16C\	.	.
25	16B-X\	8g'/J)	.
25.25	16C\JJ	.	.
25.5	16FF\LL	8r	.
25.75	16C\	.	.
26	16c\	(8a-'/L	.
26.25	16C\	.	.
26.5	16d-\	8b-'/J)	.
26.75	16C\JJ	.	.
=10	=10	=10	=10
27	16FF\LL	8r	.
27.25	16C\	.	.
27.5	16c\	(8cc'\L	<
27.75	16C\	.	(
28	16B-\	8dd-'\J	(
28.25	16C\JJ	.	(
28.5	16FF\LL	8cc'\L	(
28.75	16C\	.	(
29	16A-\	8aa-'\	(
29.25	16C\	.	(
29.5	16B-\	8gg'\J	(
29.75	16C\JJ	.	[
=11	=11	=11	=11
30	16FF\LL	8ff'\L	.
30.25	16C\	.	.
30.5	16A-\	8cc'\	.
30.75	16C\	.	.
31	16B-\	8dd-'\J	.
31.25	16C\JJ	.	.
31.5	16FF\LL	8cc'/L	.
31.75	16C\	.	.
32	16A-\	8a-'/	.
32.25	16C\	.	.
32.5	16c\	8f'/J	.
32.75	16C\JJ	.	.
=12	=12	=12	=12
!	!	!LO:TX:b:t=sempre sotto voce	!
33	16FF\LL	2.c/)	.
33.25	16C\	.	.
33.5	16G\	.	.
33.75	16C\	.	.
34	16A-\	.	.
34.25	16C\JJ	.	.
34.5	16FF\LL	.	.
34.75	16C\	.	.
35	16B-\	.	.
35.25	16C\	.	.
35.5	16G\	.	.
35.75	16C\JJ	.	.
=13	=13	=13	=13
36	16FF\LL	8r	.
36.25	16C\	.	.
36.5	16A-\	(8f'/L	.
36.75	16C\	.	.
37	16B-\	8g'/J)	.
37.25	16C\JJ	.	.
37.5	16FF\LL	8r	.
37.75	16C\	.	.
38	16c\	(8a-'/L	.
38.25	16C\	.	.
38.5	16d-\	8b-'/J)	.
38.75	16C\JJ	.	.
=14	=14	=14	=14
39	16FF\LL	8r	.
39.25	16C\	.	.
39.5	16c\	(8cc'\L	<
39.75	16C\	.	(
40	16B-\	8dd-'\J	(
40.25	16C\JJ	.	(
40.5	16FF\LL	8cc'\L	(
40.75	16C\	.	(
41	16A-\	8ccc'\	(
41.25	16C\	.	(
41.5	16c\	8aa-'\J	(
41.75	16C\JJ	.	[
=15	=15	=15	=15
42	16FF\LL	8gg'\L	.
42.25	16C\	.	.
42.5	16B-\	8cc'\	.
42.75	16C\	.	.
43	16G\	8dd-'\J	.
43.25	16C\JJ	.	.
43.5	16FF\LL	8cc'/L	.
43.75	16C\	.	.
44	16B-\	8g'/	.
44.25	16C\	.	.
44.5	16G\	8c'/J	.
44.75	16C\JJ	.	.
=16	=16	=16	=16
*	*ped	*	*
45	16FF\LL	2.f/)	.
45.25	16C\	.	.
45.5	16A-\	.	.
45.75	16C\	.	.
46	16c\	.	.
46.25	16C\JJ	.	.
46.5	16FF\LL	.	.
46.75	16C\	.	.
47	16A-\	.	.
47.25	16C\	.	.
47.5	16c\	.	.
47.75	16C\JJ	.	.
*	*Xped	*	*
=17	=17	=17	=17
*	*ped	*	*
48	16FF\LL	(4.a-/	p
48.25	16Dn\	.	<
48.5	16A-\	.	(
48.75	16D\	.	(
49	16B-\	.	(
49.25	16D\JJ	.	(
*	*Xped	*	*
49.5	.	(b-8q/	(
*	*ped	*	*
49.5	16FF\LL	8a-/L)	(
49.75	16BB-\	.	(
50	16A-\	8.g/	(
50.25	16BB-\	.	(
50.5	16B-\	.	(
50.75	16BB-\JJ	16a-/Jk	[
*	*Xped	*	*
=18	=18	=18	=18
*	*ped	*	*
!	!	!LO:TX:b:t=pi&ugrave; cresc.	!
51	16EE-\LL	4.b-\	.
51.25	16BB-\	.	.
51.5	16G-\	.	.
51.75	16BB-\	.	.
52	16B-\	.	.
52.25	16BB-\JJ	.	.
*	*Xped	*	*
*	*ped	*	*
52.5	16EE-\LL	4.cc\	.
52.75	16AA-\	.	.
53	16G-\	.	.
53.25	16AA-\	.	.
53.5	16A-\	.	.
53.75	16AA-\JJ	.	.
*	*Xped	*	*
=19	=19	=19	=19
*	*ped	*	*
54	16DD-/LL	8dd-'\L	f
54.25	16AA-/	.	.
54.5	16F/	8a-'\	.
54.75	16AA-/	.	.
55	16A-/	8b-'\J	.
55.25	16AA-/JJ	.	.
55.5	16DD-/LL	8a-'/L	.
55.75	16AA-/	.	.
56	16F/	8f'/	.
56.25	16AA-/	.	.
56.5	16A-/	8d-'/J	.
56.75	16AA-/JJ	.	.
*	*Xped	*	*
=20	=20	=20	=20
*	*ped	*	*
!	!	!	!LO:DY:a
57	16CC/LL	4A-^/)	fz
57.25	16AA-/	.	.
57.5	16E-/	.	.
57.75	16AA-/	.	.
58	16A-/	8r	.
58.25	16AA-/JJ	.	.
58.5	16CC/LL	4r	.
58.75	16AA-/	.	.
59	16E-/	.	.
59.25	16AA-/	.	.
59.5	16A-/	(8e-/	.
59.75	16AA-/JJ	.	.
*	*Xped	*	*
=21	=21	=21	=21
*	*ped	*	*
60	(16CC-/LL	4.ee-\)	p
60.25	16GG-/	.	.
60.5	16E-/	.	.
60.75	16GG-/	.	.
61	16G-/	.	<
61.25	16GG-/JJ)	.	(
61.5	.	(ee-q16/LL	(
61.5	.	ffq16/JJ	(
61.5	(16CC-/LL	(8ee-\L)	(
61.75	16GG-/	.	(
62	16E-/	8ddn\	(
62.25	16GG-/	.	(
62.5	16G-/	8ee-\J	(
62.75	16GG-/JJ)	.	(
*	*Xped	*	*
=22	=22	=22	=22
*	*ped	*	*
63	(16CC-/LL	4.ff\)	[
63.25	16AA-/	.	.
63.5	16D-/	.	.
63.75	16AA-/	.	.
64	16A-/	.	.
64.25	16AA-/JJ)	.	.
*	*Xped	*	*
*	*ped	*	*
!	!	!LO:TX:b:t=cresc.	!
64.5	(16BBB-/LL	[4.gg-^\	.
64.75	16GG-/	.	.
65	16D-/	.	.
65.25	16GG-/	.	.
65.5	16G-/	.	.
65.75	16GG-/JJ)	.	.
*	*Xped	*	*
=23	=23	=23	=23
*	*ped	*	*
66	(16BBB-/LL	8gg-\L]	.
66.25	16GG-/	.	.
66.5	16D-/	(8dd-'\	.
66.75	16GG-/	.	.
67	16G-/	8ee-'\J	.
67.25	16GG-/JJ)	.	.
!	!	!LO:TX:b:t=sempre	!
67.5	(16BBB-/LL	8dd-'\L	.
67.75	16GG-/	.	.
68	16D-/	8b-'\	.
68.25	16GG-/	.	.
68.5	16G-/	8g-'\J	.
68.75	16GG-/JJ)	.	.
*	*Xped	*	*
=24	=24	=24	=24
*	*ped	*	*
!	!	!LO:TX:b:t=stretto	!
69	(16AAA-/LL	8d-'/)	.
69.25	16FF/	.	.
69.5	16D-/	(8dd-'\L	.
69.75	16FF/	.	.
70	16F/	8ee-'\J	.
70.25	16FF/JJ)	.	.
*	*Xped	*	*
*	*ped	*	*
!	!	!LO:TX:b:t=e	!
70.5	(16AAA-/LL	8dd-'/L	.
70.75	16FF-/	.	.
71	16D-/	8a-'/	.
71.25	16FF-/	.	.
!	!	!LO:TX:b:t=pi&ugrave;	!
71.5	16F-/	8f-'/J	.
71.75	16FF-/JJ)	.	.
*	*Xped	*	*
=25	=25	=25	=25
*	*ped	*	*
72	(16GGGn/LL	8d-'/)	f
72.25	16EEn/	.	.
72.5	16D-/	(8d-'/ 8dd-'/L	.
72.75	16EE/	.	.
73	16En/	8e-X'/) 8ee-X'/J	.
73.25	16EE/JJ)	.	.
73.5	(16BBB-/LL	8r	.
73.75	16GG/	.	.
74	16E/	8en'/ (8een'/L	.
74.25	16GG/	.	.
74.5	16G/	8f#'/ 8ff#'/J)	.
74.75	16GG/JJ)	.	.
=26	=26	=26	=26
75	(16BBBn/LL	8r	.
75.25	16GG/	.	.
75.5	16En/	8g'\ (8gg'\L	.
75.75	16GG/	.	.
!	!	!LO:TX:b:t=accelerando e	!
76	16G/	8an'\ 8aan'\J)	.
76.25	16GG/JJ)	.	.
*	*Xped	*	*
*	*ped	*	*
76.5	(16CC/LL	8r	.
76.75	16GG/	.	.
77	16E/	8b-'\ (8bb-'\L	.
77.25	16GG/	.	.
77.5	16G/	8cc'\ 8ccc'\J)	.
77.75	16GG/JJ)	.	.
*	*Xped	*	*
=27	=27	=27	=27
*	*	*8va	*
!	!	!LO:TX:b:t=pi&ugrave; cresc.	!
78	(16EEn\LL	8dd-\ (8ddd-\L	<
78.25	16D-\	.	.
78.5	16B-\	8ee-X\ 8eee-X\)	.
78.75	16D-\)	.	.
79	(16GG\	8een\ (8eeen\J	.
79.25	16En\JJ	.	.
79.5	16d-\LL	8ff#\ 8fff#\L)	.
79.75	16E\)	.	.
80	(16BB-\	8gg\ (8ggg\	.
80.25	16G\	.	.
80.5	16en\	8aan\ 8aaan\J)	.
80.75	16G\JJ)	.	.
=28	=28	=28	=28
81	(16D-\LL	16bb-\ (16bbb-\LL	ff
81.25	16B-\	16ccc\ 16cccc\JJ	.
81.5	16g\	4ddd-\ 4dddd-\)	.
*	*	*X8va	*
81.75	(16B-\)	.	.
82	16En\	.	.
82.25	16d-\JJ	.	.
*	*clefG2	*	*
82.5	16b-/LL	4r	.
82.75	16d-/	.	.
83	16b-/	.	.
83.25	16d-/	.	.
83.5	16b-/	8r	.
83.75	16d-/JJ)	.	.
*	*clefF4	*	*
=29	=29	=29	=29
*	*ped	*	*
!	!LO:TX:b:t=sempre legato	!	!
84	(16C\LL	8dd-'\ (8ddd-'\L	f
84.25	16A-\	.	.
84.5	16f\	8dd-'\ 8ddd-'\	.
84.75	16A-\	.	.
85	16a-\	8dd-'\ 8ddd-'\J)	.
85.25	16A-\JJ)	.	.
*	*Xped	*	*
*	*ped	*	*
85.5	(16C\LL	4dd-\ (4ddd-\	>
85.75	16G\	.	.
86	16en\	.	.
86.25	16G\	.	.
86.5	16g\	8cc\ 8ccc\)	.
86.75	16G\JJ)	.	.
*	*Xped	*	*
=30	=30	=30	=30
*	*ped	*	*
87	16C\LL	(8dd-'\L	pp
87.25	16A-\	.	.
87.5	16f\	8dd-'\	.
87.75	16A-\	.	.
88	16a-\	8dd-'\J)	.
88.25	16A-\JJ	.	.
*	*Xped	*	*
*	*ped	*	*
88.5	16C\LL	(4dd-^\	.
88.75	16G\	.	.
89	16en\	.	.
89.25	16G\	.	.
89.5	16g\	8cc\)	.
89.75	16G\JJ	.	.
*	*Xped	*	*
=31	=31	=31	=31
*	*ped	*	*
90	16C\LL	8b-'\ (8bb-'\L	f
90.25	16F\	.	.
!	!	!LO:TX:b:t=stretto	!
90.5	16d-\	8a-'\ 8aa-'\	.
90.75	16F\	.	.
91	16f\	8b-'\ 8bb-'\J	.
91.25	16F\JJ	.	.
*	*Xped	*	*
*	*ped	*	*
91.5	16C\LL	4.cc\ 4.ccc\)	.
91.75	16G\	.	.
92	16en\	.	.
92.25	16G\	.	.
92.5	16g\	.	.
92.75	16G\JJ	.	.
*	*Xped	*	*
=32	=32	=32	=32
*	*ped	*	*
93	16C\LL	8b-\L	pp
93.25	16F\	.	.
93.5	16d-\	8a-\	.
93.75	16F\	.	.
94	16f\	8b-\J	.
94.25	16F\JJ	.	.
*	*Xped	*	*
*	*ped	*	*
94.5	16C\LL	4.cc\	.
94.75	16G\	.	.
95	16en\	.	.
95.25	16G\	.	.
95.5	16g\	.	.
95.75	16G\JJ	.	.
*	*Xped	*	*
=33	=33	=33	=33
*	*ped	*	*
*	*	*8va	*
96	16C\LL	40%3ddd-'\ (40%3dddd-'\L	f
96.25	16A-\	.	.
!	!	!LO:TX:b:t=appassionato	!
96.3	.	40%3ddd-'\ 40%3dddd-'\	.
96.5	16f\	.	.
96.6	.	40%3ddd-'\ 40%3dddd-'\	.
96.75	16A-\	.	.
96.9	.	40%3ddd-'\ 40%3dddd-'\	.
97	16a-\	.	.
*	*	*X8va	*
97.2	.	40%3dd-'\ (40%3ddd-'\J)	.
97.25	16A-\JJ	.	.
*	*Xped	*	*
*	*ped	*	*
97.5	16C\LL	4dd-^\ 4ddd-^\	.
97.75	16G\	.	.
98	16en\	.	.
98.25	16G\	.	.
98.5	16g\	8cc\ 8ccc\)	.
98.75	16G\JJ	.	.
*	*Xped	*	*
=34	=34	=34	=34
*	*ped	*	*
99	16C\LL	(40%3ddd-'\L	pp
99.25	16A-\	.	.
99.3	.	40%3ddd-'\	.
99.5	16f\	.	.
99.6	.	40%3ddd-'\	.
99.75	16A-\	.	.
99.9	.	40%3ddd-'\	.
100	16a-\	.	.
100.2	.	40%3dd-'\J)	.
100.25	16A-\JJ	.	.
*	*Xped	*	*
*	*ped	*	*
100.5	16C\LL	(4dd-^\	.
100.75	16G\	.	.
101	16en\	.	.
101.25	16G\	.	.
101.5	16g\	8cc\)	.
101.75	16G\JJ	.	.
*	*Xped	*	*
=35	=35	=35	=35
*	*ped	*	*
102	16C\LL	40%3b-\ (40%3bb-\L	f
102.25	16F\	.	.
102.3	.	40%3cc\ 40%3ccc\	.
102.5	16d-\	.	.
102.6	.	40%3b-\ 40%3bb-\	.
102.75	16F\	.	.
102.9	.	40%3a-\ 40%3aa-\	.
103	16f\	.	.
103.2	.	40%3b-\ 40%3bb-\J	.
103.25	16F\JJ	.	.
*	*Xped	*	*
*	*ped	*	*
103.5	16C\LL	4.cc\ 4.ccc\)	.
103.75	16G\	.	.
104	16en\	.	.
104.25	16G\	.	.
104.5	16g\	.	.
104.75	16G\JJ	.	.
*	*Xped	*	*
=36	=36	=36	=36
*	*ped	*	*
!	!	!LO:TX:a:t=poco rallent.	!
105	16C\LL	(40%3b-\L	pp
105.25	16F\	.	.
105.3	.	40%3cc\	.
105.5	16d-\	.	.
105.6	.	40%3b-\	.
105.75	16F\	.	.
105.9	.	40%3a-\	.
106	16f\	.	.
106.2	.	40%3b-\J	.
106.25	16F\JJ	.	.
*	*Xped	*	*
*	*ped	*	*
106.5	16C\LL	4.cc\)	.
106.75	16G\	.	.
107	16en\	.	.
107.25	16G\	.	.
107.5	16g\	.	.
107.75	16G\JJ	.	.
*	*Xped	*	*
=37	=37	=37	=37
!	!	!LO:TX:a:t=a tempo, sempre agitato	!
108	(16FF\LL	8r	.
108.25	16C\	.	.
108.5	16A-\	(8f'/L	p
108.75	16C\	.	.
109	16B-\	8g'/J)	.
109.25	16C\JJ)	.	.
109.5	(16FF\LL	8r	.
109.75	16C\	.	.
110	16c\	(8a-'/L	.
110.25	16C\	.	.
110.5	16d-\	8b-'/J)	.
110.75	16C\JJ)	.	.
=38	=38	=38	=38
111	16FF\LL	8r	.
111.25	16C\	.	.
111.5	16c\	(8cc'\L	<
111.75	16C\	.	(
112	16B-\	(8dd-\J	(
112.25	16C\JJ	.	(
112.5	16FF\LL	8cc'\L)	(
112.75	16C\	.	(
113	16A-\	8aa-'\	(
113.25	16C\	.	(
113.5	16B-\	8gg'\J	(
113.75	16C\JJ	.	[
=39	=39	=39	=39
114	16FF\LL	8ff'\L	.
114.25	16C\	.	.
114.5	16A-\	8cc'\	.
114.75	16C\	.	.
115	16B-\	(8dd-\J	.
115.25	16C\JJ	.	.
115.5	16FF\LL	8cc'/L)	.
115.75	16C\	.	.
116	16A-\	8a-'/	.
116.25	16C\	.	.
116.5	16c\	8f'/J	.
116.75	16C\JJ	.	.
=40	=40	=40	=40
117	16FF\LL	2.c/)	.
117.25	16C\	.	.
117.5	16G\	.	.
117.75	16C\	.	.
118	16A-\	.	.
118.25	16C\JJ	.	.
118.5	16FF\LL	.	.
118.75	16C\	.	.
119	16B-\	.	.
119.25	16C\	.	.
119.5	16G\	.	.
119.75	16C\JJ	.	.
=41	=41	=41	=41
120	16FF\LL	8r	.
120.25	16C\	.	.
120.5	16A-\	(8f'/L	.
120.75	16C\	.	.
121	16B-\	8g'/J)	.
121.25	16C\JJ	.	.
121.5	16FF\LL	8r	.
121.75	16C\	.	.
122	16c\	(8a-'/L	.
122.25	16C\	.	.
122.5	16d-\	8b-'/J)	.
122.75	16C\JJ	.	.
=42	=42	=42	=42
123	16FF\LL	8r	.
123.25	16C\	.	.
123.5	16c\	(8cc'\L	<
123.75	16C\	.	(
124	16B-\	8dd-'\J	(
124.25	16C\JJ	.	(
124.5	16FF\LL	8cc'\L	(
124.75	16C\	.	(
125	16A-\	8ccc'\	(
125.25	16C\	.	(
125.5	16c\	8aa-'\J	(
125.75	16C\JJ	.	[
=43	=43	=43	=43
126	16FF\LL	8gg'\L	.
126.25	16C\	.	.
126.5	16B-\	8cc'\	.
126.75	16C\	.	.
127	16G\	8dd-'\J	.
127.25	16C\JJ	.	.
127.5	16FF\LL	8cc'\)	.
127.75	16C\	.	.
!	!	!	!LO:DY:a
!	!	!LO:S:a	!
128	16B-\	(8g'/L	<
128.25	16C\	.	(
128.5	16G\	8c'/J	(
128.75	16C\JJ	.	[
=44	=44	=44	=44
129	16FF\LL	16f/LL	<
129.25	16BBn\	16g/JJ	(
129.5	16A-\	2a-/)	(
129.75	16BB\	.	(
130	16d-\	.	(
!	!LO:TX:a:t=cresc.	!	!
130.25	16BB\JJ	.	(
130.5	16FF\LL	.	(
130.75	16BB\	.	(
131	16A-\	.	(
131.25	16BB\	.	(
131.5	16d-\	8r	(
131.75	16BB\JJ	.	[
=45	=45	=45	=45
!	!	!LO:TX:a:t=con forza.	!
132	16FF\LL	8r	.
132.25	16C\	.	.
132.5	16A-\	8f'\ (8ff'\L	f
132.75	16C\	.	.
133	16B-\	8g'\ 8gg'\J)	.
133.25	16C\JJ	.	.
133.5	16FF\LL	8r	.
133.75	16C\	.	.
134	16c\	8a-'\ (8aa-'\L	.
134.25	16C\	.	.
134.5	16d-\	8b-'\ 8bb-'\J)	.
134.75	16C\JJ	.	.
=46	=46	=46	=46
135	16FF\LL	8r	.
135.25	16C\	.	.
135.5	16c\	(8cc'\ 8ccc'\L	<
135.75	16C\	.	(
136	16B-\	8dd-'\ 8ddd-'\J	(
136.25	16C\JJ	.	(
136.5	16FF\LL	8cc'\ 8ccc'\L	(
136.75	16C\	.	(
137	16A-\	8aa-'\ 8aaa-'\	(
137.25	16C\	.	(
137.5	16B-\	8gg'\ 8ggg'\J	(
137.75	16C\JJ	.	[
=47	=47	=47	=47
138	16FF\LL	8ff'\ 8fff'\L	.
138.25	16C\	.	.
138.5	16A-\	8cc'\ 8ccc'\	.
138.75	16C\	.	.
!	!	!	!LO:DY:a
139	16B-\	8dd-'\ 8ddd-'\J	>
139.25	16C\JJ	.	)
139.5	16FF\LL	8cc'\ 8ccc'\L	)
139.75	16C\	.	]
140	16A-\	8a-'\ 8aa-'\	.
140.25	16C\	.	.
140.5	16c\	8f'\ 8ff'\J	.
140.75	16C\JJ	.	.
=48	=48	=48	=48
!	!	!	!LO:DY:a
141	16FF\LL	2.c/ 2.cc/)	fz
141.25	16C\	.	.
141.5	16G\	.	.
141.75	16C\	.	.
142	16A-\	.	.
142.25	16C\JJ	.	.
142.5	16FF\LL	.	.
142.75	16C\	.	.
143	16B-\	.	.
143.25	16C\	.	.
143.5	16G\	.	.
143.75	16C\JJ	.	.
=49	=49	=49	=49
*	*ped	*	*
144	16FF\LL	8r	.
144.25	16C\	.	.
144.5	16An\	8f'\ (8ff'\L	<
144.75	16C\	.	(
145	16B-\	8g'\ 8gg'\J)	(
145.25	16C\JJ	.	(
*	*Xped	*	*
*	*ped	*	*
145.5	16FF\LL	8r	(
145.75	16C\	.	(
146	16c\	8an'\ (8aan'\L	(
146.25	16C\	.	(
146.5	16d-\	8b-'\ 8bb-'\J)	(
146.75	16C\JJ	.	(
*	*Xped	*	*
=50	=50	=50	=50
*	*ped	*	*
147	16FF\LL	8r	(
147.25	16G-\	.	(
147.5	16e-\	8cc\ (8ccc\L	(
147.75	16G-\	.	(
148	16f\	8dd-\ 8ddd-\J	(
148.25	16G-\JJ	.	(
*	*Xped	*	*
*	*ped	*	*
148.5	16FF\LL	4.ee-\ 4.eee-\)	[
148.75	16G-\	.	.
149	16g-\	.	.
149.25	16G-\	.	.
149.5	16g-\	.	.
149.75	16G-\JJ	.	.
*	*Xped	*	*
=51	=51	=51	=51
*	*ped	*	*
150	16FF\LL	8r	.
150.25	16Dn\	.	.
!	!LO:TX:a:t=crescendo	!	!
150.5	16G#\	8bn'\ (8bbn'\L	p
150.75	16D\	.	.
151	16An\	8cc'\ 8ccc'\J)	.
151.25	16D\JJ	.	.
*	*Xped	*	*
*	*ped	*	*
151.5	16FF\LL	8r	.
151.75	16D\	.	.
152	16Bn\	8ddn'\ (8dddn'\L	.
152.25	16D\	.	.
152.5	16c#\	8een'\ 8eeen'\J)	.
152.75	16D\JJ	.	.
*	*Xped	*	*
=52	=52	=52	=52
*	*ped	*	*
!	!LO:TX:a:t=e	!	!
153	16FF\LL	8r	.
153.25	16Dn\	.	.
153.5	16dn\	8ff\ (8fff\L	.
!	!LO:TX:a:t=stretto	!	!
153.75	16D\	.	.
154	16en\	8gg\ 8ggg\J	.
154.25	16D\JJ	.	.
*	*Xped	*	*
*	*ped	*	*
154.5	16FF\LL	4.aa-\ 4.aaa-\)	.
154.75	16D\	.	.
155	16f\	.	.
155.25	16D\	.	.
155.5	16f\	.	.
155.75	16D\JJ	.	.
*	*Xped	*	*
=53	=53	=53	=53
156	16FF\LL	8r	.
156.25	16D-X\	.	.
!	!LO:TX:a:t=sempre	!	!
156.5	16B-\	8en\ (8een\L	p
156.75	16D-\	.	.
157	16d-\	8f\ 8ff\J	.
157.25	16D-\JJ	.	.
157.5	16FF\LL	8a-\ 8aa-\L	.
!	!LO:TX:a:t=pi&ugrave;	!	!
157.75	16D-\	.	.
158	16B-\	8g\ 8gg\	.
158.25	16D-\	.	.
!	!LO:TX:a:t=cresc.	!	!
158.5	16d-\	8a-\ 8aa-\J	.
158.75	16D-\JJ	.	.
=54	=54	=54	=54
159	16FF\LL	8cc\ 8ccc\L	.
159.25	16D-\	.	.
!	!LO:TX:a:t=ed	!	!
159.5	16B-\	8b-\ 8bb-\	.
159.75	16D-\	.	.
160	16d-\	8cc\ 8ccc\J	.
!	!LO:TX:a:t=accel.	!	!
160.25	16D-\JJ	.	.
160.5	16FF\LL	8ee-\ 8eee-\L	.
160.75	16D-\	.	.
161	16B-\	8dd-\ 8ddd-\	.
161.25	16D-\	.	.
161.5	16d-\	8ee-\ 8eee-\J	.
161.75	16D-\JJ	.	.
=55	=55	=55	=55
162	16FF\LL	8ff\ 8fff\L	<
162.25	16D-\	.	(
162.5	16B-\	8een\ 8eeen\	(
162.75	16D-\	.	(
163	16d-\	8ff\ 8fff\J	(
163.25	16D-\JJ	.	(
*	*	*8va	*
163.5	16FF\LL	8aa-\ 8aaa-\L	(
163.75	16D-\	.	(
164	16B-\	8gg\ 8ggg\	(
164.25	16D-\	.	(
164.5	16d-\	8aa-\ 8aaa-\J	(
164.75	16D-\JJ	.	(
=56	=56	=56	=56
165	16FF\LL	16aan\ (16aaan\LL	(
165.25	16D-\	16bb-\ 16bbb-\JJ)	[
165.5	16B-\	2ddd-^\ 2dddd-^\)	fz
*	*	*X8va	*
165.75	16D-\	.	.
166	16d-\	.	.
166.25	16D-\JJ	.	.
166.5	16FF\LL	.	.
166.75	16D-\	.	.
167	16B-\	.	p
167.25	16D-\	.	.
167.5	16d-\	8en\ (8een\	.
167.75	16D-\JJ	.	.
=57	=57	=57	=57
*	*ped	*	*
!	!LO:TX:a:t=sotto voce	!	!
168	16FF\LL	8g'\ 8gg'\L	.
168.25	16D-\	.	.
168.5	16B-\	8g'\ 8gg'\	.
168.75	16D-\	.	.
169	16d-\	8g'\ 8gg'\J)	.
169.25	16D-\JJ	.	.
*	*Xped	*	*
*	*ped	*	*
169.5	16FF\LL	4g^\ (4gg^\	.
169.75	16C\	.	.
170	16A-\	.	.
170.25	16C\	.	.
170.5	16c\	8f\ 8ff\)	.
170.75	16C\JJ	.	.
*	*Xped	*	*
=58	=58	=58	=58
*	*ped	*	*
171	16FF\LL	(8g'/L	pp
171.25	16D-\	.	.
171.5	16B-\	8g'/	.
171.75	16D-\	.	.
172	16d-\	8g'/J)	.
172.25	16D-\JJ	.	.
*	*Xped	*	*
*	*ped	*	*
172.5	16FF\LL	(4g^/	]
172.75	16C\	.	)
173	16A-\	.	>
173.25	16C\	.	.
173.5	16c\	8f/)	.
173.75	16C\JJ	.	.
*	*Xped	*	*
=59	=59	=59	=59
*	*ped	*	*
174	16FF\LL	8en'/ (8een'/L	p
174.25	16D-\	.	.
174.5	16B-\	8d#'/ 8dd#'/	<
174.75	16D-\	.	(
175	16d-\	8e'/ 8ee'/J	(
175.25	16D-\JJ	.	(
*	*Xped	*	*
*	*ped	*	*
!	!	!LO:TX:a:t=ten.	!
175.5	16FF\LL	4.f\ 4.ff\)	[
175.75	16C\	.	.
176	16A-\	.	.
176.25	16C\	.	.
176.5	16c\	.	.
176.75	16C\JJ	.	.
*	*Xped	*	*
=60	=60	=60	=60
*	*ped	*	*
!	!	!LO:TX:b:t=smorz.	!
177	16FF\LL	(8en/L	.
177.25	16D-\	.	.
177.5	16B-\	8d#/	.
177.75	16D-\	.	.
178	16d-\	8e/J	.
178.25	16D-\JJ	.	.
*	*Xped	*	*
*	*ped	*	*
178.5	16FF\LL	4.f/)	.
178.75	16C\	.	.
179	16A-\	.	.
179.25	16C\	.	.
179.5	16c\	.	.
179.75	16C\JJ	.	.
*	*Xped	*	*
=61	=61	=61	=61
*	*ped	*	*
180	16FF\LL	(20gg'\ 20ggg'\LL	f
180.2	.	20gg'\ 20ggg'\	.
180.25	16D-\	.	.
180.4	.	20gg'\ 20ggg'\	.
180.5	16B-\	.	.
180.6	.	20gg'\ 20ggg'\	.
180.75	16D-\	.	.
180.8	.	20gg'\ 20ggg'\JJ	.
181	16d-\	16gg'\ 16ggg'\LL)	.
181.25	16D-\JJ	32r	.
*	*Xped	*	*
181.375	.	32f\ 32gg\JJk	.
*	*ped	*	*
181.5	16FF\LL	(4g^\ 4gg^\	.
181.75	16C\	.	.
182	16A-\	.	.
182.25	16C\	.	.
182.5	16c\	8f 8ff\)	.
182.75	16C\JJ	.	.
*	*Xped	*	*
=62	=62	=62	=62
*	*ped	*	*
183	16FF\LL	(20gg'\LL	pp
183.2	.	20gg'\	.
183.25	16D-\	.	.
183.4	.	20gg'\	.
183.5	16B-\	.	.
183.6	.	20gg'\	.
183.75	16D-\	.	.
183.8	.	20gg'\JJ	.
*	*Xped	*	*
*	*ped	*	*
184	16d-\	16gg'\LL)	.
184.25	16D-\JJ	32r	.
184.375	.	32g\JJk	.
184.5	16FF\LL	(4g^/	.
184.75	16C\	.	.
185	16A-\	.	.
185.25	16C\	.	.
185.5	16c\	8f/)	.
185.75	16C\JJ	.	.
*	*Xped	*	*
=63	=63	=63	=63
*	*ped	*	*
!	!	!LO:TX:a:t=riten.	!
186	16FF\LL	(16en'\ 16een'\LL	ff
186.25	16D-\	16f'\ 16ff'\	.
186.5	16B-\	16g'\ 16gg'\	.
186.75	16D-\	16a-'\ 16aa-'\	.
187	16d-\	16b-'\ 16bb-'\	.
187.25	16D-\JJ	16a-'\ 16aa-'\JJ	.
*	*Xped	*	*
*	*ped	*	*
187.5	16FF\LL	4.f\ 4.ff\)	.
187.75	16C\	.	.
188	16A-\	.	.
188.25	16C\	.	.
188.5	16c\	.	.
188.75	16C\JJ	.	.
*	*Xped	*	*
=64	=64	=64	=64
*	*ped	*	*
189	16FF\LL	(16en'/LL	pp
189.25	16D-\	16f'/	.
189.5	16B-\	16g'/	.
189.75	16D-\	16a-'/	.
190	16d-\	16b-'/	.
190.25	16D-\JJ	16a-'/JJ	.
*	*Xped	*	*
*	*ped	*	*
190.5	16FF\LL	4.f/)	.
190.75	16C\	.	.
191	16A-\	.	.
191.25	16C\	.	.
191.5	16c\	.	.
191.75	16C\JJ	.	.
*	*Xped	*	*
=65	=65	=65	=65
*	*	*8va	*
192	8FF/	(16bbb-\LL	ppp
!	!	!LO:TX:b:t=leggierissimo	!
192.25	.	16ccc\	.
192.5	8r	16aaa-\	.
192.75	.	16ccc\	.
*	*clefG2	*	*
193	(16ddd-\LL	16bbb-\	.
193.25	16ff\JJ	16ccc\JJ	.
193.5	16ddd-\LL	16aaa-\LL	.
193.75	16ff\	16ccc\	.
194	16ddd-\	16bbb-\	.
194.25	16ff\	16ccc\	.
194.5	16ddd-\	16aaa-\	.
194.75	16ff\JJ)	16ccc\JJ)	.
=66	=66	=66	=66
!	!	!LO:TX:b:t=smorz.	!
195	(16bb-\LL	(16ggg\LL	.
195.25	16ff\	16aa-\	.
195.5	16bb-\	16fff\	.
195.75	16ff\	16aa-\	.
196	16bb-\	16ggg\	.
196.25	16ff\JJ	16aa-\JJ	.
196.5	16bb-\LL	16fff\LL	.
196.75	16ff\	16aa-\	.
197	16bb-\	16ggg\	.
197.25	16ff\	16aa-\	.
197.5	16bb-\	16fff\	.
197.75	16ff\JJ)	16aa-\JJ)	.
=67	=67	=67	=67
198	8f'/	8ffff'\	.
*	*	*X8va	*
198.5	8r	8r	.
199	8r	8r	.
199.5	4r	4r	.
200.5	8r	8r	.
==	==	==	==
*-	*-	*-	*-
!!!ENC: Craig Stuart Sapp
!!!END: 2003/12/24/
!!!SMS: Karl Klindworth (1830-1916), Oeuvres complètes de Frédéric Chopin, Band 2. Etudes (pp.41-82), Berlin: Bote & Bock, n.d.[1880]. Plate 12281(a-l)
!!!URL: http://hz.imslp.info/files/imglnks/usimg/3/30/IMSLP00313-Chopin_-_OP10_9.PDF
